X: 14630
T: Gan Ainm
R: jig
M: 6/8
K: Amajor
|:ABc e2e|faf e2e|faf ecA|cdc BcB|
ABc e2e|faf e2e|faf ecA|BcB A3:|
|:f5a|e5a|faf edc|B3 e3|
ABc e2e|faf e2e|faf ecA|BcB A3:|

